jhotdraw8/src/main/java/org.jhotdraw8.draw/org/jhotdraw8/draw/action/images/createTextArea.svg

<?xml version="1.0" encoding="UTF-8" standalone="no"?>
<svg xmlns="http://www.w3.org/2000/svg" baseProfile="tiny" height="22" version="1.2" viewBox="0 0 22 22" width="22">
  <defs/>
  <g>
    <g id="content">
      <rect fill="#ffffff" height="14" id="rectangle13" stroke="#000000" stroke-alignment="inner" stroke-width="2"
            width="14" x="4" y="4"/>
      <path d="M11.125,9.139745712280273 12.35498046875,11.959569931030273 9.8359375,11.959569931030273 11.125,9.139745712280273 Z M11.146484375,6.336034774780273 7.04296875,15.149999618530273 8.39111328125,15.149999618530273 9.31494140625,13.135839462280273 12.865234375,13.135839462280273 13.7353515625,15.149999618530273 15.10498046875,15.149999618530273 11.146484375,6.336034774780273 Z"
            fill="#333333" id="combinedpath3"/>
    </g>
  </g>
</svg>

<?xml version="1.0" encoding="UTF-8" standalone="no"?>
<svg xmlns="http://www.w3.org/2000/svg" baseProfile="full" height="22" version="1.1" viewBox="0 0 22 22" width="22">
  <defs>
    <clipPath id="clipPath1">
      <rect fill="#000000" height="88" width="164"/>
    </clipPath>
  </defs>
  <g class="Drawing" clip-path="url(#clipPath1)" id="drawing1">
    <g class="Layer" id="content">
      <rect class="Rectangle" fill="#ffffff" height="14" id="rectangle13" stroke="#000000" stroke-alignment="inner"
            stroke-width="2" width="14" x="4" y="4"/>
      <g class="Label" id="label3">
        <path d="m11.125,9.139745712280273 1.22998046875,2.81982421875 -2.51904296875,0 1.2890625,-2.81982421875 z m0.021484375,-2.8037109375 -4.103515625,8.81396484375 1.34814453125,0 0.923828125,-2.01416015625 3.55029296875,0 0.8701171875,2.01416015625 1.36962890625,0 -3.95849609375,-8.81396484375 z"
              fill="#000000"/>
      </g>
    </g>
  </g>
</svg>
